X: 6466
T: Cat In The Corner, The
R: slide
M: 12/8
K: Gmajor
|:A|B2 e d2 B B^AB d3|B^AB d2 B =A3 A^GA|
B2 e d3 B^AB d2 B|1 B^AB d2 B G3- G2:|2 BAB d2 B G3||
GBd|e3 e2 ^d e2 f g2 B|B^AB d2 B A3 AB/c/d|
e^de ede e2 f g3|B^AB d2 B G3 GB/c/d|
efe e^de e2 f g2 B|B^AB d2 B A3 A^GA|
B2 e d3 B^AB d2 B|B^AB d2 B G3- G2||

